X: 10582
T: Double Espresso
R: jig
M: 6/8
K: Dmajor
d3 d2g|fdd d2a|agf fed|dcB ABc|
dBB gBB|GBB dBB|ecc acc|ecc acc|
d3 d2g|fdd d2a|agf fed|dcB ABd|
eBB gBB|GBB eBB|ecc fdd|gee abg|
|:fed def|ed=c =cde|d2B g2B|c2A aeg|
fed def|ed=c =cde|dBg eca|1 fdc d2g:|2 fdg e2a||

